svg/fluentui-system-icons/ic_fluent_arrow_minimize_16_regular.svg

<svg width="16" height="16" viewBox="0 0 16 16" fill="none" xmlns="http://www.w3.org/2000/svg">
<path d="M13.8536 2.85355C14.0488 2.65829 14.0488 2.34171 13.8536 2.14645C13.6583 1.95118 13.3417 1.95118 13.1464 2.14645L10 5.29289V3.5C10 3.22386 9.77614 3 9.5 3C9.22386 3 9 3.22386 9 3.5V6.4C9 6.73137 9.26863 7 9.6 7H12.5C12.7761 7 13 6.77614 13 6.5C13 6.22386 12.7761 6 12.5 6H10.7071L13.8536 2.85355ZM6.5 13C6.22386 13 6 12.7761 6 12.5V10.7071L2.85355 13.8536C2.65829 14.0488 2.34171 14.0488 2.14645 13.8536C1.95118 13.6583 1.95118 13.3417 2.14645 13.1464L5.29289 10H3.5C3.22386 10 3 9.77614 3 9.5C3 9.22386 3.22386 9 3.5 9H6.4C6.73137 9 7 9.26863 7 9.6V12.5C7 12.7761 6.77614 13 6.5 13Z" fill="#212121"/>
</svg>

<svg xmlns="http://www.w3.org/2000/svg" width="16" height="16"><path d="M13.854 2.854a.5.5 0 0 0-.708-.708L10 5.293V3.5a.5.5 0 0 0-1 0v2.9a.6.6 0 0 0 .6.6h2.9a.5.5 0 0 0 0-1h-1.793l3.147-3.146ZM6.5 13a.5.5 0 0 1-.5-.5v-1.793l-3.146 3.147a.5.5 0 0 1-.708-.708L5.293 10H3.5a.5.5 0 0 1 0-1h2.9a.6.6 0 0 1 .6.6v2.9a.5.5 0 0 1-.5.5Z"/></svg>
